X:1
T:Mighty to Save
T:Charles Coller, 1920
T:Mighty to Save
T:Public Domain
T:Public Domain
T:Public Domain
C:Charles Coller, 1920
Z:Public Domain
%%score ( 1 2 ) ( 3 4 )
L:1/8
M:4/4
K:F
V:1 treble 
V:2 treble 
V:3 bass 
V:4 bass 
V:1
 [CA]2 [CF]2 [B,C]2 (DE) | [A,F]2 [DF]2 [CF]4 | [=B,G]2 [B,G][B,G] [_B,G] [CA]2 [DB] | [CA]8 | %4
w: 1.~Joy- ful news to *|man- kind, Je-|sus is might- y to save;|All|
w: 2.~Though as scar- let *|the stains, Je-|sus is might- y to save;|Though|
w: 3.~Fear- ful soul, dis- *|thy fears, Je-|sus is might- y to save;|Seek-|
w: 4.~Since His blood for *|was shed, Je-|sus is might- y to save;|Since|
 [CA]2 [CF]2 [B,D]2 (EF) | [CG]2 [=B,G]2 (C2 A,2) | [=B,F]2 [B,F][B,E] [B,D] [B,E]2 [B,F] | [CE]8 | %8
w: who seek shall sure- *|find Je- sus *|might- y to save. Sin- ners|may|
w: as steel the bind- *|chains, Je- sus *|might- y to save. His the|glor-|
w: er, haste to dry *|tears, Je- sus *|might- y to save. With as-|sur-|
w: He lives who once *|dead, Je- sus *|might- y to save. While in|con-|
 [B,B]3 [B,E] [B,C]2 (DC) | [CF]3 [CG] [CA]4 | [CA]3 [C^F] [CD]2 (_ED) | [DG]3 [DA] [DB]4 | %12
w: re- lin- quish wrong, *|tering hearts may|now be strong; Sound *|tid- ings right|
w: ious sa- crif- ice; *|the blood which|paid the price; His *|love doth now|
w: ance seek His face, *|no more His|love and grace, Give *|now His right-|
w: flict we en- gage, *|the storms a-|round shall rage, All *|earth- ly pil-|
 [Cc]2 [CA]2 [B,B]2 [CG]2 | [A,A]2 [=B,F]2 [Cc]4 | [=B,G]2 [B,G][B,G] [D=B] [CA]2 [B,G] | %15
w: a- long, Je- sus|is might- y,|is might- y to save. *|
w: e- ntice; Je- sus|is might- y,|is might- y to save. Je-|
w: ful place, Je- sus|is might- y,|is might- y to save. *|
w: grim- age, Je- sus|is might- y,|is might- y to save. *|
 C D2 ^D E4 ||"^Refrain" [B,C]4 [B,D]2 [B,C]2 | [B,C] [B,E]2 [CG] [EB]4 | [B,C]4 [B,D]2 [B,C]2 | %19
w: ||||
w: sus is might- y|save, Je- sus|is might- y to|save; From the|
w: ||||
w: ||||
 [A,C] [CF]2 [CA] [Cc]4 | [DB]3 [_EA] [DG][C^F] [DG]2 | [CA]3 [_DG] [CF][B,E](C=B,) | %22
w: |||
w: ut- ter- most, to|the ut- ter- most, Might-|y to save! * * *|
w: |||
w: |||
 [CFc]2 [DFc]4 [B,E]2 | [A,F]8 |] %24
w: ||
w: ||
w: ||
w: ||
V:2
 x6 B,2 | x8 | x8 | x8 | x6 C2 | x4 G4 | x8 | x8 | x6 G,2 | x8 | x6 A,2 | x8 | x8 | x8 | x8 | c8 || %16
w: all||||ly|is|||Fal-||the||||||
w: be||||ing|is|||His||the|||||to|
w: card||||thy|is|||Doubt||Him||||||
w: thee||||was|is|||When||our||||||
 x8 | x8 | x8 | x8 | x8 | x6 F2 | x8 | x8 |] %24
w: ||||||||
w: ||||||||
w: ||||||||
w: ||||||||
V:3
 [F,,F,]2 [A,,F,]2 [G,,E,]2 (F,G,) | [D,F,]2 [B,,F,]2 [A,,F,]2 [D,A,]2 | %2
 [G,,F,]2 [G,,F,][G,,F,] [C,E,] [C,E,]2 [C,E,] | (A,,2 C,2 A,,2 C,2) | %4
 [F,,F,]2 [A,,F,]2 [B,,F,]2 ([B,,G,][A,,F,]) | [G,,E,]2 [G,,F,]2 (E,2 E,2) | %6
 [G,,D,]2 [G,,D,][G,,E,] [G,,F,] [G,,G,]2 [D,G,] | (C,2 G,,2 C,4) | %8
 [C,E,]3 [C,G,] [G,,E,]2 [B,,E,]2 | [A,,F,]3 [G,,E,] ([F,,F,]2 [_E,G,]2) | %10
 [D,^F,]3 [D,A,] [A,,F,]2 [C,F,]2 | [B,,G,]3 [A,,^F,] (G,,2 =F,2) | %12
 [E,G,]2 [F,A,]2 [D,F,]2 [E,G,]2 | [^C,E,]2 [D,F,]2 ([E,G,]2 [_E,A,]2) | %14
 [D,F,]2 [D,F,][D,F,] [G,,F,] [G,,F,]2 [D,F,] | [E,G,] [F,_A,]2 [^F,=A,] [G,B,]4 || %16
 G,,2 B,,2 [G,,F,]2 [C,E,]2 | [G,,E,] [C,G,]2 [E,B,] [C,G,]4 | G,,2 C,2 [G,,F,]2 [C,E,]2 | %19
 [F,,F,] [A,,F,]2 [C,F,] [F,A,]2 [_E,G,]2 | [D,^F,]3 [C,F,] [B,,G,][A,,A,] [B,,G,]2 | %21
 [C,E,]3 [B,,E,] [A,,F,][G,,G,]([A,,F,][D,G,]) | [C,A,]2 [C,_A,]4 [C,G,]2 | [F,,C,F,]8 |] %24
V:4
 x6 C,2 | x8 | x8 | F,8 | x8 | x4 G,,4 | x8 | G,8 | x8 | x8 | x8 | x4 G,4 | x8 | x8 | x8 | C,8 || %16
 E,4 x4 | x8 | E,4 x4 | x8 | x8 | x8 | x8 | x8 |] %24

